images/cost-chart.svg

<svg width="213" height="142" viewBox="0 0 213 142" fill="none" xmlns="http://www.w3.org/2000/svg">
<path d="M212.038 1.25391H0.614746V140.465H212.038V1.25391Z" fill="white"/>
<path d="M212.653 141.078H0V0.638672H212.653V141.078ZM1.2295 139.85H211.424V1.86744H1.2295V139.85Z" fill="#2667FF"/>
<path d="M22.8992 106.83L36.5774 81.2299L64.7536 107.7L83.5035 53.0703L118.544 91.4698L141.598 82.1003L183.401 27.4707" fill="white"/>
<path d="M65.01 108.825L36.7314 82.3042L23.463 107.136L22.3359 106.521L36.3728 80.205L64.4465 106.573L83.2477 51.8406L118.698 90.7009L141.188 81.5874L182.889 27.1113L183.913 27.8793L142.008 82.6114L118.34 92.2368L118.032 91.9296L83.76 54.2982L65.01 108.825Z" fill="#2667FF"/>
<path d="M36.6803 84.6602C38.6326 84.6602 40.2152 83.0785 40.2152 81.1275C40.2152 79.1764 38.6326 77.5947 36.6803 77.5947C34.7281 77.5947 33.1455 79.1764 33.1455 81.1275C33.1455 83.0785 34.7281 84.6602 36.6803 84.6602Z" fill="#2667FF"/>
<path d="M64.549 110.566C66.5012 110.566 68.0838 108.985 68.0838 107.034C68.0838 105.083 66.5012 103.501 64.549 103.501C62.5968 103.501 61.0142 105.083 61.0142 107.034C61.0142 108.985 62.5968 110.566 64.549 110.566Z" fill="#2667FF"/>
<path d="M83.7087 56.8067C85.6609 56.8067 87.2435 55.2251 87.2435 53.274C87.2435 51.3229 85.6609 49.7412 83.7087 49.7412C81.7564 49.7412 80.1738 51.3229 80.1738 53.274C80.1738 55.2251 81.7564 56.8067 83.7087 56.8067Z" fill="#2667FF"/>
<path d="M151.178 23.4219H61.5266V24.7024H151.178V23.4219Z" fill="#2667FF"/>
</svg>

<svg xmlns="http://www.w3.org/2000/svg" width="213" height="142" fill="none"><path fill="#fff" d="M212.038 1.254H.615v139.211h211.423V1.254Z"/><path fill="#2667FF" d="M212.653 141.078H0V.638h212.653v140.44ZM1.23 139.85h210.194V1.867H1.229V139.85Z"/><path fill="#fff" d="m22.9 106.83 13.677-25.6 28.177 26.47 18.75-54.63 35.04 38.4 23.054-9.37 41.803-54.63"/><path fill="#2667FF" d="m65.01 108.825-28.279-26.52-13.268 24.831-1.127-.615 14.037-26.316 28.074 26.368 18.8-54.732 35.451 38.86 22.49-9.114 41.701-54.476 1.024.768-41.905 54.732-23.668 9.626-.308-.307L83.76 54.298l-18.75 54.527Z"/><path fill="#2667FF" d="M36.68 84.66a3.534 3.534 0 1 0-3.535-3.532 3.534 3.534 0 0 0 3.535 3.532ZM64.549 110.566a3.533 3.533 0 1 0 0-7.065 3.533 3.533 0 1 0 0 7.065ZM83.709 56.807a3.534 3.534 0 1 0-3.535-3.533 3.534 3.534 0 0 0 3.535 3.533ZM151.178 23.422H61.527v1.28h89.651v-1.28Z"/></svg>
